X:1
T:La pastorella
T:La pastorella
T:Francesca Caccini
T:Source : Il primo libro delle Musische a 1 e 2 voci---Firenze---Z.Pignoni---1618. Editor : André Vierendeels (07/06/15). 
T:Notes : Original clefs : C1, F4 Figures in BC are notated in original print Editorial suggestions : m6-7 and m12-13, played by an instrument, idem for the ritornello. 
T:(1587- ca1645)
C:Francesca Caccini
%%score 1 { 2 | 3 }
L:1/8
Q:1/4=79
M:4/4
K:F
V:1 treble nm="Soprano" snm="S"
V:2 treble nm="BC" snm="BC"
V:3 bass 
V:1
 z4 z2 G2 | G3 G G3 G | A8 | z2 B2 c4 | c2 d/c/-c B4 | A6 z2 | z8 | z2 c4 TcB | c4 c4 | TB3 A A4 | %10
w: La|pa- sto- rel- la|mia|tra fio-|ri, è'l _ _ gi-|glio,||an- zi la|ro- sa|di piu- grat'|
 A4 A4 | G2 z2 z4 | z4 z2 A/B^c/ | d6 Tc>B | B>c d2 A4 | A2 B2 c>d B>c | d/A/-A c/B/-B A4 | %17
w: o- do-|re,|an- * *|* zi la|ro- * * sa|di piu gra- * * *|* * * t'o- * * do-|
 G3 z z4 | z8 | z8 | z8 |] %21
w: re,||||
V:2
 z8 | z8 | z8 | z8 | z8 | A6 c2 | B2 B2 A4 | z8 | z8 | z8 | z8 | G2 G>^F G>A B2 | F2 G2 F4 | z8 | %14
 z8 | z8 | z8 |"^Ritornello" G3 A B2 B2 | c2 d2 e2 d2 | c2 B>c A4 | G8 |] %21
V:3
 z4 G,4 |"^#" G,2 F,2 E,4 |"^6" D,6 E,2 | ^F,2 G,2 C,2 D,2 | E,2 A,,2 E,4 | A,,6 A,2 | %6
 A,2 G,2 F,4 |"^#""^6" F,2 E,2 D,4 |"^-natural" C,4 C,2 D,2 | E,2 A,,2 C,2 D,2 | E,2 C,2 D,4 | %11
 G,,6 G,2 | D,2 E,2 F,4- |"^b" F,2 D,2 E,4 | D,4 D,2 C,2 | B,,2 G,,2 C,2 D,2 | E,2 C,2 D,4 | %17
 G,,4 G,2 F,2 | E,2 D,2 C,2 D,2 | E,2 C,2 D,4 | G,,8 |] %21

